src/files/img/social-icons/skeb.svg

<?xml version="1.0" encoding="UTF-8" standalone="no"?><svg width="100%" height="100%" viewBox="0 0 70 70" version="1.1" xmlns="http://www.w3.org/2000/svg" style="fill-rule:evenodd;clip-rule:evenodd;stroke-linejoin:round;stroke-miterlimit:2;"><circle cx="35" cy="35" r="31.1" style="fill:url(#_Linear1);"/><path d="M35,3.9c17.061,0 31.1,14.039 31.1,31.1c0,17.061 -14.039,31.1 -31.1,31.1c-17.061,0 -31.1,-14.039 -31.1,-31.1c0,-17.061 14.039,-31.1 31.1,-31.1m0,-3.9c-19.2,0 -35,15.8 -35,35c0,19.2 15.8,35 35,35c19.2,0 35,-15.8 35,-35c0,-19.2 -15.8,-35 -35,-35Z" style="fill:#1c5b6e;fill-rule:nonzero;"/><g><path d="M21.931,13.091l-1.519,4.448l6.653,2.271l1.519,-4.448l-6.653,-2.271Z" style="fill:#fff;"/></g><g><path d="M17.391,26.394l-1.519,4.448l6.653,2.272l1.519,-4.448l-6.653,-2.272Z" style="fill:#fff;"/></g><g><path d="M12.85,39.701l-1.518,4.448l6.653,2.272l1.518,-4.448l-6.653,-2.272Z" style="fill:#fff;"/></g><path d="M14,57.94l1,-2.66l-4.82,-1.65c1.138,1.551 2.417,2.994 3.82,4.31Z" style="fill:#fff;fill-rule:nonzero;"/><path d="M27.13,12.41l4.43,1.51l-3,8.86l-4.46,-1.51l-1.52,4.44l4.42,1.52l-3,8.86l-4.43,-1.51l-1.57,4.42l4.43,1.51l-3,8.86l-4.43,-1.5l-1.5,4.45l4.43,1.51l-2,5.74c1.262,0.995 2.599,1.891 4,2.68l12.94,-37.67l0.1,-0.29l3.1,-9.09l0.68,-2l-8.87,-3l-0.75,2.21Z" style="fill:#fff;fill-rule:nonzero;"/><path d="M63.48,22.52l-23.34,-8l-16.82,49.3c3.718,1.512 7.695,2.29 11.709,2.29c17.05,-0 31.08,-14.03 31.08,-31.08c0,-4.307 -0.895,-8.567 -2.629,-12.51Z" style="fill:#fff;fill-rule:nonzero;"/><circle cx="35" cy="35" r="31.1" style="fill:none;"/><defs><linearGradient id="_Linear1" x1="0" y1="0" x2="1" y2="0" gradientUnits="userSpaceOnUse" gradientTransform="matrix(43.98,43.98,-43.98,43.98,13.01,13.01)"><stop offset="0" style="stop-color:#32aa8f;stop-opacity:1"/><stop offset="0.2" style="stop-color:#32aa8f;stop-opacity:1"/><stop offset="1" style="stop-color:#1c5b6e;stop-opacity:1"/></linearGradient></defs></svg>

<?xml version="1.0" encoding="UTF-8" standalone="no"?>
<!DOCTYPE svg PUBLIC "-//W3C//DTD SVG 1.1//EN" "http://www.w3.org/Graphics/SVG/1.1/DTD/svg11.dtd">
<svg width="100%" height="100%" viewBox="0 0 70 70" version="1.1" xmlns="http://www.w3.org/2000/svg" xmlns:xlink="http://www.w3.org/1999/xlink" xml:space="preserve" xmlns:serif="http://www.serif.com/" style="fill-rule:evenodd;clip-rule:evenodd;stroke-linejoin:round;stroke-miterlimit:2;">
    <circle cx="35" cy="35" r="31.1" style="fill:url(#_Linear1);"/>
    <path d="M35,3.9C52.061,3.9 66.1,17.939 66.1,35C66.1,52.061 52.061,66.1 35,66.1C17.939,66.1 3.9,52.061 3.9,35C3.9,17.939 17.939,3.9 35,3.9M35,0C15.8,0 -0,15.8 0,35C0,54.2 15.8,70 35,70C54.2,70 70,54.2 70,35C70,15.8 54.2,0 35,0Z" style="fill:rgb(28,91,110);fill-rule:nonzero;"/>
    <g transform="matrix(0.323092,-0.946368,0.946368,0.323092,1.01,34.32)">
        <rect x="22.15" y="12.94" width="4.7" height="7.03" style="fill:white;"/>
    </g>
    <g transform="matrix(0.323092,-0.946368,0.946368,0.323092,-14.65,39.03)">
        <rect x="17.61" y="26.24" width="4.7" height="7.03" style="fill:white;"/>
    </g>
    <g transform="matrix(0.323092,-0.946368,0.946368,0.323092,-30.32,43.74)">
        <rect x="13.07" y="39.55" width="4.7" height="7.03" style="fill:white;"/>
    </g>
    <path d="M14,57.94L15,55.28L10.18,53.63C11.318,55.181 12.597,56.624 14,57.94Z" style="fill:white;fill-rule:nonzero;"/>
    <path d="M27.13,12.41L31.56,13.92L28.56,22.78L24.1,21.27L22.58,25.71L27,27.23L24,36.09L19.57,34.58L18,39L22.43,40.51L19.43,49.37L15,47.87L13.5,52.32L17.93,53.83L15.93,59.57C17.192,60.565 18.529,61.461 19.93,62.25L32.87,24.58L32.97,24.29L36.07,15.2L36.75,13.2L27.88,10.2L27.13,12.41Z" style="fill:white;fill-rule:nonzero;"/>
    <path d="M63.48,22.52L40.14,14.52L23.32,63.82C27.038,65.332 31.015,66.11 35.029,66.11C52.079,66.11 66.109,52.08 66.109,35.03C66.109,30.723 65.214,26.463 63.48,22.52Z" style="fill:white;fill-rule:nonzero;"/>
    <circle cx="35" cy="35" r="31.1" style="fill:none;"/>
    <defs>
        <linearGradient id="_Linear1" x1="0" y1="0" x2="1" y2="0" gradientUnits="userSpaceOnUse" gradientTransform="matrix(43.98,43.98,-43.98,43.98,13.01,13.01)"><stop offset="0" style="stop-color:rgb(50,170,143);stop-opacity:1"/><stop offset="0.2" style="stop-color:rgb(50,170,143);stop-opacity:1"/><stop offset="1" style="stop-color:rgb(28,91,110);stop-opacity:1"/></linearGradient>
    </defs>
</svg>
